LUTs/canon-cine.cube
TITLE "Generated by Resolve"
LUT_3D_SIZE 9
0 0 0
0.109789 0 0
0.285801 0 0
0.541283 0 0
0.861601 0 0
1 0 0
1 0 0
1 0 0
1 0 0
0 0.0696574 0
0.0327001 0.0493019 0
0.252506 0.0148165 0
0.524071 0 0
0.851225 0 0
1 0 0
1 0 0
1 0 0
1 0 0
0 0.236454 0
0 0.226734 0
0.185046 0.20943 0
0.493523 0.152468 0
0.833326 0 0
1 0 0
1 0 0
1 0 0
1 0 0
0 0.468406 0
0 0.463355 0
0 0.454688 0
0.39443 0.429206 0
0.780301 0.368322 0
1 0.270863 0
1 0.178088 0
1 0.122713 0
1 0.0991684 0
0 0.756146 0
0 0.753094 0
0 0.747906 0
0 0.733013 0
0.649805 0.699702 0
0.998489 0.653819 0
1 0.619821 0
1 0.604425 0
1 0.599023 0
0 1 0
0 1 0
0 1 0
0 0.991302 0
0.420752 0.96762 0
0.872343 0.935958 0
1 0.913252 0
1 0.903181 0
1 0.899687 0
0 1 0
0 1 0
0 1 0
0 1 0
0.108965 1 0
0.771267 1 0
0.996002 1 0
1 1 0
1 1 0
0 1 0
0 1 0
0 1 0
0 1 0
0 1 0
0.722591 1 0
0.959762 1 0
1 1 0
1 1 0
0 1 0
0 1 0
0 1 0
0 1 0
0 1 0
0.704997 1 0
0.946929 1 0
1 1 0
1 1 0
0 0 0.0644694
0.0990311 0 0.0621042
0.280812 0 0.0581064
0.538628 0 0.0468147
0.859983 0 0.0224002
1 0 0
1 0 0
1 0 0
1 0 0
0 0.0406043 0.0225986
0.0202335 0.0202335 0.0202335
0.246937 0 0.0162509
0.521324 0 0.00494392
0.849592 0 0
1 0 0
1 0 0
1 0 0
1 0 0
0 0.222477 0
0 0.212222 0
0.177783 0.193851 0
0.490593 0.132113 0
0.831647 0 0
1 0 0
1 0 0
1 0 0
1 0 0
0 0.461189 0
0 0.456062 0
0 0.447242 0
0.390768 0.421317 0
0.778485 0.359121 0
1 0.258534 0
1 0.160189 0
1 0.0985275 0
1 0.0709392 0
0 0.751781 0
0 0.74873 0
0 0.743496 0
0 0.728511 0
0.647623 0.694957 0
0.997116 0.648737 0
1 0.61442 0
1 0.598886 0
1 0.593439 0
0 1 0
0 1 0
0 0.998856 0
0 0.988067 0
0.417319 0.964309 0
0.870741 0.932525 0
1 0.909712 0
1 0.899611 0
1 0.896101 0
0 1 0
0 1 0
0 1 0
0 1 0
0.098146 1 0
0.769451 1 0
0.994629 1 0
1 1 0
1 1 0
0 1 0
0 1 0
0 1 0
0 1 0
0 1 0
0.720638 1 0
0.958328 1 0
1 1 0
1 1 0
0 1 0
0 1 0
0 1 0
0 1 0
0 1 0
0.702983 1 0
0.94548 1 0
1 1 0
1 1 0
0 0 0.229816
0.0787213 0 0.228687
0.272206 0 0.226749
0.534081 0 0.221195
0.857237 0 0.208804
1 0 0.19176
1 0 0.179171
1 0 0.17348
1 0 0.171481
0 0 0.208896
0 0 0.207675
0.237247 0 0.20557
0.516625 0 0.199542
0.846799 0 0.185977
1 0 0.167132
1 0 0.153017
1 0 0.146578
1 0 0.144305
0 0.196948 0.168856
0 0.185565 0.167391
0.164904 0.164904 0.164904
0.485603 0.0914321 0.157671
0.828794 0 0.141161
1 0 0.117464
1 0 0.098909
1 0 0.0901503
1 0 0.0870069
0 0.448692 0
0 0.443427 0
0 0.434348 0
0.384482 0.407614 0
0.775433 0.343023 0
1 0.236362 0
1 0.125826 0
1 0.0500801 0
1 0.0217441 0
0 0.74435 0
0 0.741253 0
0 0.735973 0
0 0.720821 0
0.643885 0.68687 0
0.994781 0.640009 0
1 0.605188 0
1 0.589395 0
1 0.583841 0
0 0.999481 0
0 0.997238 0
0 0.993423 0
0 0.982574 0
0.411444 0.958663 0
0.86804 0.92665 0
1 0.903685 0
1 0.893507 0
1 0.889967 0
0 1 0
0 1 0
0 1 0
0 1 0
0.0777295 1 0
0.766354 1 0
0.992294 1 0
1 1 0
1 1 0
0 1 0
0 1 0
0 1 0
0 1 0
0 1 0
0.717311 1 0
0.955901 1 0
1 1 0
1 1 0
0 1 0
0 1 0
0 1 0
0 1 0
0 1 0
0.699565 1 0
0.943008 1 0
1 1 0
1 1 0
0 0 0.458732
0.0190433 0 0.458137
0.246403 0 0.45713
0.52105 0 0.454261
0.849424 0 0.44802
1 0 0.439796
1 0 0.433982
1 0 0.431434
1 0 0.430549
0 0 0.448066
0 0 0.447456
0.207782 0 0.446418
0.503136 0 0.443488
0.83888 0 0.437095
1 0 0.428656
1 0 0.42269
1 0 0.420081
1 0 0.419181
0 0.103334 0.429404
0 0.0845808 0.428763
0.123476 0.0498817 0.427695
0.471199 0 0.424628
0.820691 0 0.417945
1 0 0.40911
1 0 0.402869
1 0 0.400122
1 0 0.399176
0 0.411337 0.371679
0 0.405585 0.370947
0 0.395651 0.369711
0.366171 0.366171 0.366171
0.766705 0.29308 0.358419
1 0.160967 0.348135
1 0 0.34081
1 0 0.337591
1 0 0.336477
0 0.722896 0.200748
0 0.719692 0.199466
0 0.714244 0.197299
0 0.698589 0.191058
0.633204 0.663417 0.176974
0.988174 0.614649 0.157321
1 0.578225 0.142489
1 0.561624 0.135698
1 0.555795 0.133303
0 0.984039 0
0 0.981765 0
0 0.97789 0
0 0.966842 0
0.394354 0.942489 0
0.860334 0.90985 0
1 0.886397 0
1 0.876005 0
1 0.872389 0
0 1 0
0 1 0
0 1 0
0 1 0
0.0180667 1 0
0.757504 1 0
0.985656 1 0
1 1 0
1 1 0
0 1 0
0 1 0
0 1 0
0 1 0
0 1 0
0.707805 1 0
0.948974 1 0
1 1 0
1 1 0
0 1 0
0 1 0
0 1 0
0 1 0
0 1 0
0.689799 1 0
0.935973 1 0
1 1 0
1 1 0
0 0 0.742184
0 0 0.741833
0.180545 0 0.741222
0.491691 0 0.739498
0.832288 0 0.735744
1 0 0.730877
1 0 0.727459
1 0 0.725978
1 0 0.72546
0 0 0.735775
0 0 0.735424
0.127977 0 0.734798
0.472648 0 0.733059
0.8215 0 0.72929
1 0 0.724361
1 0 0.720913
1 0 0.719402
1 0 0.718898
0 0 0.724788
0 0 0.724422
0.000411994 0 0.723796
0.438468 0 0.722026
0.802869 0 0.718181
1 0 0.713176
1 0 0.709667
1 0 0.708141
1 0 0.707622
0 0.316381 0.692699
0 0.308949 0.692317
0 0.295979 0.691661
0.323262 0.256138 0.689799
0.747478 0.142428 0.685771
1 0 0.680507
1 0 0.676814
1 0 0.675212
1 0 0.674647
0 0.674037 0.617319
0 0.670588 0.616892
0 0.664698 0.616144
0 0.647761 0.614038
0.609476 0.609476 0.609476
0.973693 0.555734 0.603494
1 0.514977 0.599313
1 0.496193 0.597482
1 0.48957 0.596857
0 0.949767 0.502159
0 0.947402 0.50161
0 0.943374 0.500694
0 0.931868 0.498085
0.354711 0.906462 0.492409
0.843427 0.872358 0.484932
1 0.847745 0.479683
1 0.83682 0.477378
1 0.833021 0.476585
0 1 0.402701
0 1 0.402029
0 1 0.400885
0 1 0.39762
0 1 0.390463
0.738033 1 0.381018
0.971145 1 0.374319
1 1 0.371374
1 1 0.370352
0 1 0.350988
0 1 0.35021
0 1 0.348898
0 1 0.345159
0 1 0.33695
0.686809 1 0.326024
0.933822 1 0.318227
1 1 0.314794
1 1 0.313603
0 1 0.331395
0 1 0.330571
0 1 0.329183
0 1 0.325246
0 1 0.316548
0.668193 1 0.304936
0.920592 1 0.296635
1 1 0.292958
1 1 0.291676
0 0 0.990219
0 0 0.98996
0.0478065 0 0.989502
0.450782 0 0.988251
0.809476 0 0.985534
1 0 0.981994
1 0 0.979522
1 0 0.978454
1 0 0.978088
0 0 0.98555
0 0 0.98529
0 0 0.984848
0.429908 0 0.983581
0.798352 0 0.98085
1 0 0.977279
1 0 0.974807
1 0 0.973724
1 0 0.973358
0 0 0.9776
0 0 0.97734
0 0 0.976883
0.39205 0 0.975601
0.779126 0 0.972839
1 0 0.969253
1 0 0.966751
1 0 0.965667
1 0 0.965286
0 0.122972 0.954711
0 0.106416 0.954437
0 0.0738231 0.953979
0.258106 0 0.952667
0.721752 0 0.949844
1 0 0.946151
1 0 0.943572
1 0 0.942458
1 0 0.942077
0 0.604486 0.90309
0 0.60061 0.9028
0 0.593988 0.902312
0 0.574853 0.900923
0.577188 0.53106 0.897902
0.954589 0.468086 0.89398
1 0.418723 0.891249
1 0.395392 0.890059
1 0.387045 0.889647
0 0.903227 0.830945
0 0.900725 0.83064
0 0.896452 0.830091
0 0.884276 0.828565
0.29601 0.857328 0.825254
0.820951 0.820951 0.820951
1 0.794614 0.817945
1 0.782879 0.816632
1 0.77879 0.81619
0 1 0.776486
0 1 0.776135
0 1 0.775555
0 1 0.773922
0 1 0.770352
0.71194 0.991012 0.765713
0.95198 0.969711 0.762463
1 0.960311 0.761059
1 0.957046 0.760571
0 1 0.751492
0 1 0.751141
0 1 0.750546
0 1 0.748837
0 1 0.745144
0.658534 1 0.740337
0.913787 1 0.736965
1 1 0.7355
1 1 0.734997
0 1 0.742687
0 1 0.742321
0 1 0.741711
0 1 0.739986
0 1 0.736248
0.639048 1 0.731365
0.900221 1 0.727962
0.990829 1 0.726482
1 1 0.725963
0 0 1
0 0 1
0 0 1
0.420005 0 1
0.793194 0 1
1 0 1
1 0 1
1 0 1
1 0 1
0 0 1
0 0 1
0 0 1
0.397528 0 1
0.781826 0 1
1 0 1
1 0 1
1 0 1
1 0 1
0 0 1
0 0 1
0 0 1
0.356329 0 1
0.762142 0 1
1 0 1
1 0 1
1 0 1
1 0 1
0 0 1
0 0 1
0 0 1
0.202502 0 1
0.703288 0 1
1 0 1
1 0 1
1 0 1
1 0 1
0 0.550713 1
0 0.546441 1
0 0.539132 1
0 0.517876 1
0.553597 0.468635 1
0.941054 0.395773 1
1 0.336187 1
1 0.30695 1
1 0.296254 1
0 0.869261 0.99382
0 0.866636 0.993561
0 0.862196 0.993118
0 0.84947 0.991867
0.247929 0.821256 0.989151
0.804929 0.783062 0.985626
1 0.755276 0.983169
1 0.74287 0.982101
1 0.738537 0.981735
0 1 0.949599
0 1 0.949325
0 1 0.948867
0 1 0.94754
0 0.991257 0.944701
0.693187 0.960464 0.940978
0.938399 0.938399 0.938399
1 0.928634 0.93727
1 0.925246 0.936889
0 1 0.929686
0 1 0.929397
0 1 0.928923
0 1 0.927581
0 1 0.924651
0.638102 1 0.920851
0.89958 1 0.918212
0.99025 0.997665 0.917052
1 0.994537 0.916655
0 1 0.922713
0 1 0.922423
0 1 0.92195
0 1 0.920592
0 1 0.917647
0.617929 1 0.913817
0.885771 1 0.911131
0.977844 1 0.909972
1 1 0.909575
0 0 1
0 0 1
0 0 1
0.405921 0 1
0.786023 0 1
1 0 1
1 0 1
1 0 1
1 0 1
0 0 1
0 0 1
0 0 1
0.382635 0 1
0.774533 0 1
1 0 1
1 0 1
1 0 1
1 0 1
0 0 1
0 0 1
0 0 1
0.339712 0 1
0.75465 0 1
1 0 1
1 0 1
1 0 1
1 0 1
0 0 1
0 0 1
0 0 1
0.173953 0 1
0.695094 0 1
1 0 1
1 0 1
1 0 1
1 0 1
0 0.525582 1
0 0.521096 1
0 0.51342 1
0 0.491035 1
0.543023 0.438743 1
0.935103 0.359976 1
1 0.293629 1
1 0.260075 1
1 0.247593 1
0 0.854047 1
0 0.851377 1
0 0.84683 1
0 0.83386 1
0.224292 0.805051 1
0.797879 0.765972 1
1 0.737499 1
1 0.724758 1
1 0.720317 1
0 1 1
0 1 1
0 1 1
0 1 1
0 0.978134 1
0.684871 0.946853 1
0.932433 0.924437 1
1 0.914519 1
1 0.91107 1
0 1 0.996307
0 1 0.996048
0 1 0.995605
0 1 0.994354
0 1 0.991653
0.629023 1 0.988144
0.893324 0.993774 0.985687
0.984634 0.984634 0.984634
1 0.98146 0.984253
0 1 0.989853
0 1 0.989593
0 1 0.989151
0 1 0.9879
0 1 0.985168
0.60853 1 0.981628
0.879423 1 0.979156
0.972152 1 0.978088
1 1 0.977722
0 0 1
0 0 1
0 0 1
0.400946 0 1
0.783536 0 1
1 0 1
1 0 1
1 0 1
1 0 1
0 0 1
0 0 1
0 0 1
0.377371 0 1
0.772 0 1
1 0 1
1 0 1
1 0 1
1 0 1
0 0 1
0 0 1
0 0 1
0.333806 0 1
0.752041 0 1
1 0 1
1 0 1
1 0 1
1 0 1
0 0 1
0 0 1
0 0 1
0.163241 0 1
0.692256 0 1
1 0 1
1 0 1
1 0 1
1 0 1
0 0.51664 1
0 0.512078 1
0 0.50425 1
0 0.481437 1
0.53933 0.42797 1
0.933059 0.346822 1
1 0.277592 1
1 0.242084 1
1 0.228748 1
0 0.848737 1
0 0.846052 1
0 0.841474 1
0 0.828412 1
0.215641 0.79939 1
0.795422 0.759991 1
1 0.731258 1
1 0.71841 1
1 0.713924 1
0 1 1
0 1 1
0 1 1
0 0.99707 1
0 0.973556 1
0.681971 0.942123 1
0.930373 0.91957 1
1 0.90959 1
1 0.906126 1
0 1 1
0 1 1
0 1 1
0 1 1
0 1 1
0.625849 1 1
0.891173 0.989288 1
0.982681 0.980087 1
1 0.976898 1
0 1 1
0 1 1
0 1 1
0 1 1
0 1 1
0.605249 1 1
0.877211 1 1
0.970184 1 1
1 1 1
