LUTs/canon.cube
TITLE "Generated by Resolve"
LUT_3D_SIZE 33
0 0 0
0 0 0
0.023621 0 0
0.0567941 0 0
0.0904707 0 0
0.128176 0 0
0.168765 0 0
0.213046 0 0
0.261601 0 0
0.314931 0 0
0.373327 0 0
0.436881 0 0
0.505364 0 0
0.57818 0 0
0.654246 0 0
0.732021 0 0
0.809567 0 0
0.884703 0 0
0.955306 0 0
1 0 0
1 0 0
1 0 0
1 0 0
1 0 0
1 0 0
1 0 0
1 0 0
1 0 0
1 0 0
1 0 0
1 0 0
1 0 0
1 0 0
0 0 0
0 0 0
0.00210575 0 0
0.0352789 0 0
0.0689708 0 0
0.111147 0 0
0.155062 0 0
0.20177 0 0
0.252216 0 0
0.307027 0 0
0.366629 0 0
0.431144 0 0
0.500435 0 0
0.573892 0 0
0.650477 0 0
0.728679 0 0
0.806577 0 0
0.881987 0 0
0.952819 0 0
1 0 0
1 0 0
1 0 0
1 0 0
1 0 0
1 0 0
1 0 0
1 0 0
1 0 0
1 0 0
1 0 0
1 0 0
1 0 0
1 0 0
0 0 0
0 0 0
0 0 0
0.0190738 0 0
0.052781 0 0
0.0971389 0 0
0.144106 0 0
0.19295 0 0
0.244953 0 0
0.300969 0 0
0.361501 0 0
0.426795 0 0
0.496681 0 0
0.570642 0 0
0.647639 0 0
0.726162 0 0
0.804318 0 0
0.879942 0 0
0.950942 0 0
1 0 0
1 0 0
1 0 0
1 0 0
1 0 0
1 0 0
1 0 0
1 0 0
1 0 0
1 0 0
1 0 0
1 0 0
1 0 0
1 0 0
0 0.0115358 0
0 0.00706493 0
0 0.00369268 0
0.0069276 0.00117494 0
0.0406348 0 0
0.085771 0 0
0.135485 0 0
0.186099 0 0
0.239384 0 0
0.296345 0 0
0.357626 0 0
0.423484 0 0
0.493858 0 0
0.568185 0 0
0.645487 0 0
0.724269 0 0
0.802609 0 0
0.878401 0 0
0.949523 0 0
1 0 0
1 0 0
1 0 0
1 0 0
1 0 0
1 0 0
1 0 0
1 0 0
1 0 0
1 0 0
1 0 0
1 0 0
1 0 0
1 0 0
0 0.0340429 0
0 0.029572 0
0 0.0261997 0
0 0.023682 0
0.0282902 0.0211185 0
0.0732433 0.0177005 0
0.126314 0.0131533 0
0.178943 0.00714122 0
0.2336 0 0
0.291569 0 0
0.353628 0 0
0.420111 0 0
0.490959 0 0
0.565682 0 0
0.643305 0 0
0.722332 0 0
0.800885 0 0
0.876829 0 0
0.948089 0 0
1 0 0
1 0 0
1 0 0
1 0 0
1 0 0
1 0 0
1 0 0
1 0 0
1 0 0
1 0 0
1 0 0
1 0 0
1 0 0
1 0 0
0 0.0640574 0
0 0.0595865 0
0 0.0562142 0
0 0.0536965 0
0.011841 0.051133 0
0.0567941 0.047715 0
0.113313 0.0431678 0
0.169009 0.0371557 0
0.225681 0.0292515 0
0.2851 0.0189212 0
0.348241 0.00560006 0
0.415564 0 0
0.487083 0 0
0.562325 0 0
0.640375 0 0
0.719753 0 0
0.798566 0 0
0.874739 0 0
0.946166 0 0
1 0 0
1 0 0
1 0 0
1 0 0
1 0 0
1 0 0
1 0 0
1 0 0
1 0 0
1 0 0
1 0 0
1 0 0
1 0 0
1 0 0
0 0.102663 0
0 0.0987106 0
0 0.0956741 0
0 0.0933547 0
0 0.090959 0
0.0349126 0.0877241 0
0.0943465 0.083299 0
0.155093 0.0770428 0
0.214786 0.0691386 0
0.276295 0.0588235 0
0.340963 0.0455024 0
0.409445 0.0285344 0
0.481865 0.00726329 0
0.557839 0 0
0.636454 0 0
0.716289 0 0
0.795483 0 0
0.871946 0 0
0.943603 0 0
1 0 0
1 0 0
1 0 0
1 0 0
1 0 0
1 0 0
1 0 0
1 0 0
1 0 0
1 0 0
1 0 0
1 0 0
1 0 0
1 0 0
0 0.143587 0
0 0.140444 0
0 0.138048 0
0 0.136233 0
0 0.134371 0
0.00598154 0.131853 0
0.0657206 0.128466 0
0.135088 0.123873 0
0.199634 0.117662 0
0.264225 0.109209 0
0.33109 0.0976425 0
0.401205 0.0815595 0
0.474876 0.0600443 0
0.551843 0.0339818 0
0.631235 0.00283818 0
0.711696 0 0
0.791379 0 0
0.868238 0 0
0.9402 0 0
1 0 0
1 0 0
1 0 0
1 0 0
1 0 0
1 0 0
1 0 0
1 0 0
1 0 0
1 0 0
1 0 0
1 0 0
1 0 0
1 0 0
0 0.187106 0
0 0.184543 0
0 0.182589 0
0 0.181125 0
0 0.179629 0
0 0.1776 0
0.0276646 0.174899 0
0.105058 0.171252 0
0.178119 0.166369 0
0.247578 0.159838 0
0.317662 0.15108 0
0.390097 0.139361 0
0.465537 0.123598 0
0.543847 0.102174 0
0.624308 0.0722515 0
0.705608 0.0361639 0
0.785962 0 0
0.863325 0 0
0.935714 0 0
1 0 0
1 0 0
1 0 0
1 0 0
1 0 0
1 0 0
1 0 0
1 0 0
1 0 0
1 0 0
1 0 0
1 0 0
1 0 0
1 0 0
0 0.233921 0
0 0.2318 0
0 0.230182 0
0 0.228977 0
0 0.227741 0
0 0.226078 0
0 0.22385 0
0.0570687 0.22089 0
0.146548 0.216922 0
0.224262 0.211673 0
0.299321 0.204715 0
0.375143 0.19556 0
0.45304 0.183597 0
0.533227 0.168002 0
0.615137 0.147768 0
0.697566 0.121462 0
0.778805 0.0865492 0
0.856886 0.0430762 0
0.929824 0 0
0.995926 0 0
1 0 0
1 0 0
1 0 0
1 0 0
1 0 0
1 0 0
1 0 0
1 0 0
1 0 0
1 0 0
1 0 0
1 0 0
1 0 0
0 0.284489 0
0 0.282704 0
0 0.281361 0
0 0.280339 0
0 0.279301 0
0 0.277913 0
0 0.276066 0
0 0.273594 0
0.0963912 0.270314 0
0.190723 0.26598 0
0.273976 0.260304 0
0.35494 0.252888 0
0.436393 0.243336 0
0.519188 0.231159 0
0.603082 0.215839 0
0.687037 0.196872 0
0.769482 0.173724 0
0.848493 0.145861 0
0.922148 0.112413 0
0.98883 0.0715648 0
1 0.0301976 0
1 0 0
1 0 0
1 0 0
1 0 0
1 0 0
1 0 0
1 0 0
1 0 0
1 0 0
1 0 0
1 0 0
1 0 0
0 0.338994 0
0 0.337484 0
0 0.336324 0
0 0.33547 0
0 0.3346 0
0 0.333425 0
0 0.331853 0
0 0.329778 0
0.0152285 0.327016 0
0.139452 0.323384 0
0.23827 0.318639 0
0.327474 0.312505 0
0.414206 0.304646 0
0.500725 0.294759 0
0.587335 0.282521 0
0.673365 0.26772 0
0.757397 0.250263 0
0.837644 0.230243 0
0.912276 0.207965 0
0.97969 0.183886 0
1 0.158648 0
1 0.132845 0
1 0.107073 0
1 0.0817578 0
1 0.0588693 0
1 0.0406806 0
1 0.0263371 0
1 0.015198 0
1 0.00663767 0
1 0.000106813 0
1 0 0
1 0 0
1 0 0
0 0.39733 0
0 0.396033 0
0 0.395041 0
0 0.394308 0
0 0.393561 0
0 0.392554 0
0 0.391211 0
0 0.389441 0
0 0.387091 0
0.0485389 0.384009 0
0.185687 0.379995 0
0.289677 0.374807 0
0.384665 0.368215 0
0.476555 0.359976 0
0.566979 0.349889 0
0.655818 0.33785 0
0.741985 0.323888 0
0.82385 0.308248 0
0.899733 0.291341 0
0.968109 0.273762 0
1 0.256214 0
1 0.239368 0
1 0.223789 0
1 0.209888 0
1 0.197864 0
1 0.187747 0
1 0.179461 0
1 0.172808 0
1 0.167559 0
1 0.16347 0
1 0.160311 0
1 0.157916 0
1 0.156085 0
0 0.459037 0
0 0.457908 0
0 0.457069 0
0 0.456428 0
0 0.455772 0
0 0.454902 0
0 0.453758 0
0 0.452216 0
0 0.450202 0
0 0.447547 0
0.0975509 0.444083 0
0.236088 0.439658 0
0.345098 0.434028 0
0.445106 0.427039 0
0.540932 0.418524 0
0.6336 0.408453 0
0.722591 0.396902 0
0.806592 0.384115 0
0.884077 0.370504 0
0.953689 0.356619 0
1 0.343038 0
1 0.330282 0
1 0.318776 0
1 0.308751 0
1 0.300282 0
1 0.293309 0
1 0.287709 0
1 0.283299 0
1 0.27985 0
1 0.277211 0
1 0.275181 0
1 0.273655 0
1 0.272496 0
0 0.523278 0
0 0.522286 0
0 0.521553 0
0 0.520989 0
0 0.520424 0
0 0.519661 0
0 0.518654 0
0 0.517311 0
0 0.515557 0
0 0.513237 0
0 0.510231 0
0.153552 0.506386 0
0.291279 0.501518 0
0.404349 0.495491 0
0.507988 0.488182 0
0.60592 0.479576 0
0.69865 0.469764 0
0.785412 0.458991 0
0.864973 0.447639 0
0.936156 0.436164 0
0.998184 0.425071 0
1 0.414771 0
1 0.405585 0
1 0.397665 0
1 0.391043 0
1 0.385641 0
1 0.381323 0
1 0.377951 0
1 0.375326 0
1 0.373312 0
1 0.371786 0
1 0.370626 0
1 0.369772 0
0 0.588785 0
0 0.587915 0
0 0.587259 0
0 0.586755 0
0 0.586267 0
0 0.585595 0
0 0.584695 0
0 0.58352 0
0 0.581964 0
0 0.579919 0
0 0.577279 0
0 0.573892 0
0.214557 0.569619 0
0.3514 0.56434 0
0.466865 0.557946 0
0.572091 0.550454 0
0.669779 0.54197 0
0.760082 0.532677 0
0.842237 0.522957 0
0.915358 0.513191 0
0.978851 0.503807 0
1 0.495155 0
1 0.487495 0
1 0.480919 0
1 0.475456 0
1 0.471015 0
1 0.467475 0
1 0.464729 0
1 0.462593 0
1 0.46096 0
1 0.459709 0
1 0.458778 0
1 0.458076 0
0 0.653971 0
0 0.653193 0
0 0.652598 0
0 0.652155 0
0 0.651713 0
0 0.651102 0
0 0.650309 0
0 0.649256 0
0 0.647868 0
0 0.646036 0
0 0.643687 0
0 0.640665 0
0.08336 0.636866 0
0.281376 0.632166 0
0.416098 0.626505 0
0.531624 0.619883 0
0.635843 0.61239 0
0.730648 0.604227 0
0.816022 0.595712 0
0.891493 0.587213 0
0.956725 0.579065 0
1 0.571588 0
1 0.564981 0
1 0.55935 0
1 0.554665 0
1 0.550881 0
1 0.54789 0
1 0.545541 0
1 0.543725 0
1 0.542351 0
1 0.541299 0
1 0.540505 0
1 0.53991 0
0 0.717037 0
0 0.716335 0
0 0.715801 0
0 0.715404 0
0 0.714992 0
0 0.714458 0
0 0.713726 0
0 0.712779 0
0 0.711513 0
0 0.709865 0
0 0.707729 0
0 0.705013 0
0 0.701579 0
0.182071 0.697337 0
0.353674 0.692256 0
0.484306 0.68629 0
0.597147 0.679576 0
0.697536 0.672282 0
0.786786 0.664683 0
0.865049 0.657115 0
0.932326 0.649897 0
0.988891 0.64329 0
1 0.637461 0
1 0.632502 0
1 0.628382 0
1 0.625071 0
1 0.622446 0
1 0.620386 0
1 0.618799 0
1 0.617594 0
1 0.616678 0
1 0.615991 0
1 0.615473 0
0 0.776257 0
0 0.775601 0
0 0.775113 0
0 0.774746 0
0 0.77438 0
0 0.773877 0
0 0.77322 0
0 0.772335 0
0 0.771191 0
0 0.76968 0
0 0.767727 0
0 0.765225 0
0 0.762081 0
0.00291447 0.758206 0
0.275929 0.753552 0
0.430121 0.748135 0
0.55436 0.742016 0
0.661616 0.735378 0
0.755428 0.728481 0
0.836881 0.72163 0
0.906447 0.715099 0
0.964691 0.709133 0
1 0.703883 0
1 0.699428 0
1 0.695735 0
1 0.69276 0
1 0.69041 0
1 0.688563 0
1 0.68716 0
1 0.686076 0
1 0.685252 0
1 0.684627 0
1 0.684169 0
0 0.830121 0
0 0.829526 0
0 0.829068 0
0 0.828733 0
0 0.828382 0
0 0.827924 0
0 0.827298 0
0 0.82649 0
0 0.825422 0
0 0.824018 0
0 0.822202 0
0 0.819883 0
0 0.816968 0
0 0.813382 0
0.172457 0.809064 0
0.369162 0.804044 0
0.508583 0.798383 0
0.624094 0.792264 0
0.723125 0.785916 0
0.808103 0.779599 0
0.880156 0.773602 0
0.9402 0.768124 0
0.989288 0.763317 0
1 0.759228 0
1 0.755856 0
1 0.753124 0
1 0.750973 0
1 0.749294 0
1 0.747997 0
1 0.747021 0
1 0.746273 0
1 0.745708 0
1 0.745281 0
0 0.877638 0
0 0.877073 0
0 0.876646 0
0 0.876326 0
0 0.87599 0
0 0.875563 0
0 0.874983 0
0 0.87422 0
0 0.873198 0
0 0.871885 0
0 0.870176 0
0 0.868009 0
0 0.865263 0
0 0.861906 0
0.00210575 0.857847 0
0.301091 0.853147 0
0.461189 0.847837 0
0.586404 0.842115 0
0.691157 0.836164 0
0.779904 0.830274 0
0.854551 0.824674 0
0.916426 0.819562 0
0.966857 0.815091 0
1 0.811276 0
1 0.808133 0
1 0.805615 0
1 0.803601 0
1 0.802045 0
1 0.800839 0
1 0.799924 0
1 0.799237 0
1 0.798718 0
1 0.798321 0
0 0.918318 0
0 0.917784 0
0 0.917372 0
0 0.917067 0
0 0.916762 0
0 0.91635 0
0 0.915801 0
0 0.915068 0
0 0.914107 0
0 0.912856 0
0 0.911238 0
0 0.909163 0
0 0.906569 0
0 0.903365 0
0 0.899519 0
0.224063 0.895048 0
0.413611 0.890028 0
0.54995 0.884596 0
0.660807 0.878965 0
0.753384 0.873381 0
0.830625 0.868086 0
0.894316 0.863264 0
0.946044 0.859037 0
0.987411 0.855436 0
1 0.852476 0
1 0.850095 0
1 0.848203 0
1 0.846738 0
1 0.845594 0
1 0.844739 0
1 0.844083 0
1 0.843595 0
1 0.843214 0
0 0.952255 0
0 0.951736 0
0 0.951339 0
0 0.951049 0
0 0.950744 0
0 0.950347 0
0 0.949828 0
0 0.949126 0
0 0.948196 0
0 0.94699 0
0 0.945434 0
0 0.94345 0
0 0.940963 0
0 0.937881 0
0 0.934203 0
0.130892 0.929915 0
0.367193 0.925093 0
0.515984 0.91989 0
0.633082 0.914504 0
0.729412 0.909163 0
0.809125 0.904097 0
0.87454 0.899474 0
0.927489 0.89543 0
0.969711 0.892012 0
1 0.889174 0
1 0.8869 0
1 0.8851 0
1 0.883696 0
1 0.882612 0
1 0.881788 0
1 0.881163 0
1 0.88069 0
1 0.880339 0
0 0.979873 0
0 0.979385 0
0 0.979004 0
0 0.978714 0
0 0.978424 0
0 0.978042 0
0 0.977523 0
0 0.976852 0
0 0.975952 0
0 0.974792 0
0 0.973281 0
0 0.971359 0
0 0.968948 0
0 0.965972 0
0 0.962402 0
0.00639353 0.958267 0
0.323064 0.953597 0
0.48542 0.948577 0
0.608621 0.943358 0
0.708492 0.938201 0
0.790494 0.933303 0
0.85745 0.928847 0
0.911482 0.924956 0
0.954498 0.921645 0
0.988281 0.918914 0
1 0.916716 0
1 0.914977 0
1 0.913619 0
1 0.912581 0
1 0.911788 0
1 0.911192 0
1 0.910735 0
1 0.910399 0
0 1 0
0 1 0
0 1 0
0 1 0
0 1 0
0 1 0
0 0.999649 0
0 0.998993 0
0 0.998123 0
0 0.996979 0
0 0.995514 0
0 0.993637 0
0 0.991287 0
0 0.988388 0
0 0.984909 0
0 0.980865 0
0.282063 0.976333 0
0.458762 0.97142 0
0.587732 0.966354 0
0.690806 0.961334 0
0.774807 0.956573 0
0.843122 0.952239 0
0.8981 0.94844 0
0.941787 0.94522 0
0.976059 0.942565 0
1 0.940429 0
1 0.938735 0
1 0.937423 0
1 0.936416 0
1 0.935637 0
1 0.935058 0
1 0.934615 0
1 0.934279 0
0 1 0
0 1 0
0 1 0
0 1 0
0 1 0
0 1 0
0 1 0
0 1 0
0 1 0
0 1 0
0 1 0
0 1 0
0 1 0
0 1 0
0 1 0
0 0.998611 0
0.244755 0.994156 0
0.436179 0.989349 0
0.570382 0.98439 0
0.676234 0.979461 0
0.761959 0.974807 0
0.831418 0.97055 0
0.88719 0.966842 0
0.931441 0.963684 0
0.966125 0.961089 0
0.992996 0.958999 0
1 0.957351 0
1 0.956069 0
1 0.955077 0
1 0.954314 0
1 0.95375 0
1 0.953307 0
1 0.952987 0
0 1 0
0 1 0
0 1 0
0 1 0
0 1 0
0 1 0
0 1 0
0 1 0
0 1 0
0 1 0
0 1 0
0 1 0
0 1 0
0 1 0
0 1 0
0 1 0
0.211398 1 0
0.417502 1 0
0.556298 0.998352 0
0.664515 0.993515 0
0.751675 0.988922 0
0.822065 0.984741 0
0.878492 0.981079 0
0.923201 0.977981 0
0.958206 0.975433 0
0.985321 0.973373 0
1 0.97174 0
1 0.970474 0
1 0.969512 0
1 0.968765 0
1 0.9682 0
1 0.967773 0
1 0.967453 0
0 1 0
0 1 0
0 1 0
0 1 0
0 1 0
0 1 0
0 1 0
0 1 0
0 1 0
