LUTs/canon.cube
TITLE "Generated by Resolve"
LUT_3D_SIZE 5
0 0 0
0.261601 0 0
0.809567 0 0
1 0 0
1 0 0
0 0.187106 0
0.178119 0.166369 0
0.785962 0 0
1 0 0
1 0 0
0 0.653971 0
0 0.647868 0
0.635843 0.61239 0
1 0.554665 0
1 0.53991 0
0 1 0
0 0.998123 0
0.282063 0.976333 0
0.976059 0.942565 0
1 0.934279 0
0 1 0
0 1 0
0.0896315 1 0
0.937041 1 0
1 1 0
0 0 0.188678
0.25214 0 0.18497
0.806546 0 0.163012
1 0 0.125032
1 0 0.114687
0 0.185763 0.168933
0.164904 0.164904 0.164904
0.782834 0 0.140658
1 0 0.0972763
1 0 0.0849928
0 0.653559 0.00762951
0 0.647456 0.00114443
0.631937 0.611948 0
1 0.554177 0
1 0.539406 0
0 1 0
0 0.997864 0
0.273243 0.976059 0
0.973602 0.94229 0
1 0.934005 0
0 1 0
0 1 0
0.0679026 1 0
0.934478 1 0
1 1 0
0 0 0.65716
0.191897 0 0.656031
0.78938 0 0.649668
1 0 0.639979
1 0 0.637644
0 0.178058 0.651316
0.0671244 0.15642 0.650187
0.765103 0 0.643763
1 0 0.633982
1 0 0.631617
0 0.65124 0.617487
0 0.645121 0.616281
0.609476 0.609476 0.609476
1 0.551431 0.5991
1 0.536568 0.596597
0 1 0.562676
0 0.996399 0.561349
0.21799 0.974563 0.553826
0.959701 0.940734 0.542351
1 0.932433 0.539559
0 1 0.548699
0 1 0.547341
0 1 0.53962
0.919905 1 0.527825
1 1 0.524971
0 0 1
0.0517433 0 1
0.762829 0 1
1 0 0.995789
1 0 0.994339
0 0.166003 1
0 0.143023 1
0.737591 0 0.998138
1 0 0.992096
1 0 0.990631
0 0.647761 0.982025
0 0.641596 0.981292
0.574014 0.605737 0.977203
1 0.54728 0.971023
1 0.532296 0.969528
0 0.998062 0.949828
0 0.994217 0.949081
0.10016 0.97232 0.944823
0.938399 0.938399 0.938399
1 0.930083 0.936858
0 1 0.941939
0 1 0.941176
0 1 0.936889
0.897566 1 0.930404
1 1 0.928847
0 0 1
0.00798047 0 1
0.756313 0 1
1 0 1
1 0 1
0 0.163012 1
0 0.139681 1
0.730846 0 1
1 0 1
1 0 1
0 0.646922 1
0 0.640742 1
0.565179 0.604837 1
1 0.546273 1
1 0.531273 1
0 0.997528 1
0 0.993683 1
0.0573434 0.971786 1
0.933227 0.937835 1
1 0.929519 1
0 1 1
0 1 1
0 1 1
0.892119 1 1
1 1 1
