LUTs/canon.cube
TITLE "Generated by Resolve"
LUT_3D_SIZE 9
0 0 0
0.0904707 0 0
0.261601 0 0
0.505364 0 0
0.809567 0 0
1 0 0
1 0 0
1 0 0
1 0 0
0 0.0340429 0
0.0282902 0.0211185 0
0.2336 0 0
0.490959 0 0
0.800885 0 0
1 0 0
1 0 0
1 0 0
1 0 0
0 0.187106 0
0 0.179629 0
0.178119 0.166369 0
0.465537 0.123598 0
0.785962 0 0
1 0 0
1 0 0
1 0 0
1 0 0
0 0.39733 0
0 0.393561 0
0 0.387091 0
0.384665 0.368215 0
0.741985 0.323888 0
1 0.256214 0
1 0.197864 0
1 0.167559 0
1 0.156085 0
0 0.653971 0
0 0.651713 0
0 0.647868 0
0.08336 0.636866 0
0.635843 0.61239 0
0.956725 0.579065 0
1 0.554665 0
1 0.543725 0
1 0.53991 0
0 0.877638 0
0 0.87599 0
0 0.873198 0
0 0.865263 0
0.461189 0.847837 0
0.854551 0.824674 0
1 0.808133 0
1 0.800839 0
1 0.798321 0
0 1 0
0 1 0
0 0.998123 0
0 0.991287 0
0.282063 0.976333 0
0.774807 0.956573 0
0.976059 0.942565 0
1 0.936416 0
1 0.934279 0
0 1 0
0 1 0
0 1 0
0 1 0
0.156695 1 0
0.737255 1 0
0.947204 0.994766 0
1 0.988968 0
1 0.986969 0
0 1 0
0 1 0
0 1 0
0 1 0
0.0896315 1 0
0.723842 1 0
0.937041 1 0
1 1 0
1 1 0
0 0 0.0350652
0.0826886 0 0.0326543
0.258122 0 0.0285801
0.503532 0 0.0170596
0.808438 0 0
1 0 0
1 0 0
1 0 0
1 0 0
0 0.0331579 0.0226444
0.0202335 0.0202335 0.0202335
0.229755 0 0.0161593
0.489067 0 0.00463874
0.799756 0 0
1 0 0
1 0 0
1 0 0
1 0 0
0 0.186603 0.00161746
0 0.17911 0
0.173312 0.16582 0
0.463523 0.122911 0
0.784802 0 0
1 0 0
1 0 0
1 0 0
1 0 0
0 0.39707 0
0 0.393301 0
0 0.386831 0
0.382239 0.367941 0
0.740749 0.323583 0
1 0.255833 0
1 0.197375 0
1 0.16701 0
1 0.15552 0
0 0.653819 0
0 0.65156 0
0 0.647715 0
0.0750591 0.636713 0
0.634394 0.612222 0
0.955795 0.578897 0
1 0.554498 0
1 0.543542 0
1 0.539727 0
0 0.877531 0
0 0.875883 0
0 0.873091 0
0 0.865156 0
0.459174 0.84773 0
0.853498 0.824552 0
1 0.808011 0
1 0.800717 0
1 0.798199 0
0 1 0
0 1 0
0 0.998032 0
0 0.99118 0
0.278828 0.976226 0
0.773632 0.956466 0
0.975143 0.942458 0
1 0.936309 0
1 0.934173 0
0 1 0
0 1 0
0 1 0
0 1 0
0.151369 1 0
0.736019 1 0
0.946258 0.994659 0
1 0.988876 0
1 0.986862 0
0 1 0
0 1 0
0 1 0
0 1 0
0.0818036 1 0
0.722576 1 0
0.936095 1 0
1 1 0
1 1 0
0 0 0.188678
0.0688029 0 0.187304
0.25214 0 0.18497
0.500389 0 0.178256
0.806546 0 0.163012
1 0 0.141497
1 0 0.125032
1 0 0.117403
1 0 0.114687
0 0.0316777 0.181537
0.0065919 0.0187686 0.180133
0.223117 0 0.177722
0.485832 0 0.170779
0.797833 0 0.155001
1 0 0.132555
1 0 0.115236
1 0 0.107164
1 0 0.10428
0 0.185763 0.168933
0 0.178241 0.167437
0.164904 0.164904 0.164904
0.460121 0.121767 0.157534
0.782834 0 0.140658
1 0 0.116365
1 0 0.0972763
1 0 0.0882429
1 0 0.0849928
0 0.396643 0.128603
0 0.392874 0.126772
0 0.386389 0.123644
0.378103 0.367483 0.114504
0.738659 0.323064 0.0929122
1 0.255192 0.060853
1 0.196567 0.0384375
1 0.166094 0.0287022
1 0.154543 0.0253452
0 0.653559 0.00762951
0 0.651301 0.00523384
0 0.647456 0.00114443
0.0614176 0.636439 0
0.631937 0.611948 0
0.954223 0.578592 0
1 0.554177 0
1 0.543236 0
1 0.539406 0
0 0.877333 0
0 0.8757 0
0 0.872908 0
0 0.864958 0
0.455726 0.847532 0
0.851713 0.824353 0
1 0.807813 0
1 0.800519 0
1 0.797986 0
0 1 0
0 1 0
0 0.997864 0
0 0.991028 0
0.273243 0.976059 0
0.771649 0.956298 0
0.973602 0.94229 0
1 0.936126 0
1 0.934005 0
0 1 0
0 1 0
0 1 0
0 1 0
0.142016 1 0
0.733928 1 0
0.944671 0.994507 0
1 0.988708 0
1 0.986709 0
0 1 0
0 1 0
0 1 0
0 1 0
0.0679026 1 0
0.720439 1 0
0.934478 1 0
1 1 0
1 1 0
0 0 0.399558
0.0302281 0 0.398856
0.234516 0 0.397681
0.491417 0 0.394324
0.80116 0 0.386969
1 0 0.377234
1 0 0.370336
1 0 0.3673
1 0 0.366247
0 0.0274968 0.395956
0 0.0145724 0.395254
0.203387 0 0.394064
0.476585 0 0.390677
0.792386 0 0.383246
1 0 0.373434
1 0 0.366445
1 0 0.363378
1 0 0.362325
0 0.183352 0.389776
0 0.175753 0.389059
0.139132 0.162249 0.387854
0.45034 0.118471 0.384421
0.777279 0 0.376883
1 0 0.366888
1 0 0.359792
1 0 0.356664
1 0 0.355581
0 0.395422 0.371786
0 0.391638 0.371038
0 0.385138 0.369772
0.366171 0.366171 0.366171
0.732738 0.321569 0.358267
1 0.253346 0.347768
1 0.194278 0.340276
1 0.163455 0.33698
1 0.151766 0.335851
0 0.652827 0.329747
0 0.650568 0.328908
0 0.646708 0.327489
0.022858 0.635691 0.32343
0.624918 0.61117 0.314519
0.949737 0.577768 0.302602
1 0.553323 0.294057
1 0.542336 0.290272
1 0.538506 0.28896
0 0.876814 0.266316
0 0.875166 0.265293
0 0.872374 0.263569
0 0.864424 0.25861
0.445838 0.846983 0.247608
0.846632 0.823789 0.2327
1 0.807233 0.22182
1 0.799924 0.216968
1 0.797391 0.215274
0 1 0.212757
0 0.999817 0.211521
0 0.997406 0.209415
0 0.990555 0.203357
0.256886 0.975586 0.189731
0.765988 0.95581 0.170809
0.969223 0.941802 0.156649
1 0.935637 0.150195
1 0.933501 0.147921
0 1 0.185595
0 1 0.184222
0 1 0.181857
0 1 0.175036
0.112795 1 0.159564
0.727947 1 0.137652
0.940139 0.994034 0.120836
1 0.988235 0.113024
1 0.986236 0.110246
0 1 0.175479
0 1 0.174029
0 1 0.171557
0 1 0.164416
0.0293431 1 0.148119
0.714336 1 0.124819
0.929885 1 0.106706
1 1 0.0982071
1 1 0.0951705
0 0 0.65716
0 0 0.656733
0.191897 0 0.656031
0.471443 0 0.654017
0.78938 0 0.649668
1 0 0.643961
1 0 0.639979
1 0 0.638239
1 0 0.637644
0 0.0184634 0.654994
0 0.00553903 0.654582
0.154253 0 0.653864
0.455955 0 0.65185
0.780453 0 0.647471
1 0 0.641764
1 0 0.637751
1 0 0.636011
1 0 0.635416
0 0.178058 0.651316
0 0.170275 0.650904
0.0671244 0.15642 0.650187
0.428443 0.111116 0.648157
0.765103 0 0.643763
1 0 0.63801
1 0 0.633982
1 0 0.632227
1 0 0.631617
0 0.392782 0.640818
0 0.388968 0.640391
0 0.382422 0.639658
0.339025 0.363317 0.637598
0.719738 0.318349 0.633112
1 0.249332 0.627268
1 0.189227 0.623163
1 0.157671 0.621378
1 0.145632 0.620752
0 0.65124 0.617487
0 0.648981 0.617029
0 0.645121 0.616281
0 0.634058 0.61413
0.609476 0.609476 0.609476
0.939986 0.575967 0.603372
1 0.551431 0.5991
1 0.540429 0.597238
1 0.536568 0.596597
0 0.875654 0.585794
0 0.874006 0.585321
0 0.871214 0.584527
0 0.863264 0.582254
0.423713 0.845792 0.577325
0.835554 0.822553 0.570871
1 0.805966 0.566339
1 0.798657 0.564355
1 0.796124 0.563668
0 1 0.562676
0 0.99881 0.562173
0 0.996399 0.561349
0 0.989548 0.558968
0.21799 0.974563 0.553826
0.753613 0.954772 0.547082
0.959701 0.940734 0.542351
1 0.934569 0.540276
1 0.932433 0.539559
0 1 0.552316
0 1 0.551812
0 1 0.550958
0 1 0.548547
0.0326238 1 0.543297
0.71487 1 0.536416
0.930282 0.993042 0.531594
1 0.987243 0.529473
1 0.985229 0.52874
0 1 0.548699
0 1 0.548196
0 1 0.547341
0 1 0.544915
0 1 0.53962
0.700984 1 0.532692
0.919905 1 0.527825
0.998917 1 0.525704
1 1 0.524971
0 0 0.881697
0 0 0.881392
0.121477 0 0.880873
0.444221 0 0.879423
0.773831 0 0.876265
1 0 0.872145
1 0 0.869276
1 0 0.868025
1 0 0.867597
0 0.00675975 0.880125
0 0 0.87982
0.0645457 0 0.879301
0.427741 0 0.877852
0.764721 0 0.874678
1 0 0.870558
1 0 0.867674
1 0 0.866423
1 0 0.865995
0 0.171023 0.87747
0 0.162982 0.87715
0 0.148623 0.876646
0.398306 0.101122 0.875166
0.749004 0 0.871992
1 0 0.867857
1 0 0.864973
1 0 0.863722
1 0 0.863279
0 0.389334 0.869871
0 0.385489 0.869566
0 0.378882 0.869047
0.300465 0.359594 0.867567
0.702525 0.314122 0.864363
1 0.244053 0.860182
1 0.182528 0.857267
1 0.14992 0.856001
1 0.137392 0.855558
0 0.649195 0.853239
0 0.646922 0.852934
0 0.643046 0.852399
0 0.631952 0.850889
0.588815 0.607263 0.847608
0.927199 0.573632 0.843336
1 0.548989 0.84036
1 0.537926 0.839063
1 0.534051 0.838621
0 0.874174 0.831159
0 0.872511 0.830823
0 0.869718 0.830274
0 0.861738 0.828717
0.393225 0.844236 0.825345
0.820951 0.820951 0.820951
1 0.804334 0.817884
1 0.797009 0.816556
1 0.794461 0.816098
0 0.998947 0.815412
0 0.997528 0.815076
0 0.995117 0.814527
0 0.988251 0.812924
0.156649 0.973251 0.809491
0.737255 0.953414 0.805005
0.947204 0.939361 0.801862
1 0.933181 0.800504
1 0.931044 0.800031
0 1 0.808484
0 1 0.808148
0 1 0.807568
0 1 0.805966
0 1 0.802487
0.69752 1 0.797971
0.917342 0.991745 0.794797
0.996567 0.985931 0.793423
1 0.983917 0.79295
0 1 0.806073
0 1 0.805737
0 1 0.805173
0 1 0.803555
0 1 0.800076
0.683268 1 0.795529
0.906798 1 0.792355
0.986969 1 0.790967
1 1 0.790494
0 0 1
0 0 1
0.0517433 0 1
0.424277 0 1
0.762829 0 1
1 0 0.99826
1 0 0.995789
1 0 0.99472
1 0 0.994339
0 0 1
0 0 1
0 0 1
0.406989 0 1
0.753567 0 1
1 0 0.996887
1 0 0.994415
1 0 0.993347
1 0 0.992966
0 0.166003 1
0 0.157763 1
0 0.143023 1
0.375967 0.0937819 1
0.737591 0 0.998138
1 0 0.994568
1 0 0.992096
1 0 0.991012
1 0 0.990631
0 0.386908 0.996307
0 0.383047 0.996048
0 0.37641 0.99559
0.270726 0.356985 0.994324
0.690288 0.311147 0.991562
0.992538 0.240314 0.987976
1 0.177768 0.985473
1 0.14435 0.98439
1 0.131456 0.984009
0 0.647761 0.982025
0 0.645472 0.98175
0 0.641596 0.981292
0 0.630472 0.980011
0.574014 0.605737 0.977203
0.918181 0.572 0.973556
1 0.54728 0.971023
1 0.536171 0.969909
1 0.532296 0.969528
0 0.873137 0.96318
0 0.871473 0.962905
0 0.868666 0.962432
0 0.860685 0.961105
0.370596 0.843168 0.958251
0.810636 0.819837 0.954513
1 0.803204 0.951919
1 0.795865 0.95079
1 0.793317 0.950408
0 0.998062 0.949828
0 0.996628 0.949554
0 0.994217 0.949081
0 0.98735 0.947738
0.10016 0.97232 0.944823
0.725643 0.952468 0.941039
0.938399 0.938399 0.938399
1 0.932219 0.937255
1 0.930083 0.936858
0 1 0.943969
0 1 0.943694
0 1 0.943206
0 1 0.941863
0 1 0.938933
0.685191 1 0.935119
0.908217 0.990845 0.932464
0.988266 0.985016 0.931304
1 0.983017 0.930907
0 1 0.941939
0 1 0.941665
0 1 0.941176
0 1 0.939818
0 1 0.936889
0.670649 1 0.933074
0.897566 1 0.930404
0.978561 1 0.929244
1 1 0.928847
0 0 1
0 0 1
0.0191958 0 1
0.41532 0 1
0.757992 0 1
1 0 1
1 0 1
1 0 1
1 0 1
0 0 1
0 0 1
0 0 1
0.39765 0 1
0.748669 0 1
1 0 1
1 0 1
1 0 1
1 0 1
0 0.163775 1
0 0.155459 1
0 0.140551 1
0.365866 0.0905013 1
0.732586 0 1
1 0 1
1 0 1
1 0 1
1 0 1
0 0.385855 1
0 0.381979 1
0 0.375326 1
0.256855 0.35584 1
0.684901 0.309865 1
0.988922 0.238682 1
1 0.175662 1
1 0.141894 1
1 0.128817 1
0 0.647135 1
0 0.644846 1
0 0.64097 1
0 0.629831 1
0.567452 0.605066 1
0.914244 0.571283 1
1 0.546532 1
1 0.535424 1
1 0.531533 1
0 0.872679 1
0 0.871031 1
0 0.868223 1
0 0.860227 1
0.360342 0.842695 1
0.806119 0.819364 1
1 0.802716 1
1 0.795361 1
1 0.792813 1
0 0.997665 1
0 0.996246 1
0 0.99382 1
0 0.986954 1
0.0685588 0.971923 0.997345
0.720546 0.952056 0.99379
0.934554 0.937987 0.991302
1 0.931792 0.990219
1 0.929656 0.989853
0 1 0.996551
0 1 0.996277
0 1 0.995834
0 1 0.994553
0 1 0.991806
0.679759 1 0.98822
0.904219 0.990448 0.985718
0.984634 0.984634 0.984634
1 0.98262 0.984253
0 1 0.994644
0 1 0.994369
0 1 0.993927
0 1 0.992645
0 1 0.989883
0.665095 1 0.986282
0.893523 1 0.98378
0.974899 1 0.982696
1 1 0.982315
0 0 1
0 0 1
0.00798047 0 1
0.412192 0 1
0.756313 0 1
1 0 1
1 0 1
1 0 1
1 0 1
0 0 1
0 0 1
0 0 1
0.394385 0 1
0.746975 0 1
1 0 1
1 0 1
1 0 1
1 0 1
0 0.163012 1
0 0.15465 1
0 0.139681 1
0.36231 0.0893416 1
0.730846 0 1
1 0 1
1 0 1
1 0 1
1 0 1
0 0.385504 1
0 0.381613 1
0 0.374945 1
0.251926 0.355459 1
0.68304 0.309407 1
0.987671 0.238117 1
1 0.174929 1
1 0.141024 1
1 0.127901 1
0 0.646922 1
0 0.644633 1
0 0.640742 1
0 0.629618 1
0.565179 0.604837 1
0.912886 0.571038 1
1 0.546273 1
1 0.535164 1
1 0.531273 1
0 0.872526 1
0 0.870863 1
0 0.868055 1
0 0.860075 1
0.356741 0.842527 1
0.804562 0.819196 1
0.999329 0.802533 1
1 0.795193 1
1 0.792645 1
0 0.997528 1
0 0.996109 1
0 0.993683 1
0 0.986816 1
0.0573434 0.971786 1
0.718776 0.951919 1
0.933227 0.937835 1
1 0.931655 1
1 0.929519 1
0 1 1
0 1 1
0 1 1
0 1 1
0 1 1
0.677882 1 1
0.902846 0.990311 1
0.983368 0.984497 1
1 0.982483 1
0 1 1
0 1 1
0 1 1
0 1 1
0 1 1
0.663172 1 1
0.892119 1 1
0.973632 1 1
1 1 1
