LUTs/canon-cine.cube
TITLE "Generated by Resolve"
LUT_3D_SIZE 33
0 0 0
0 0 0
0.0368353 0 0
0.0742657 0 0
0.109789 0 0
0.147921 0 0
0.189532 0 0
0.235309 0 0
0.285801 0 0
0.341466 0 0
0.402625 0 0
0.469306 0 0
0.541283 0 0
0.617884 0 0
0.697963 0 0
0.779889 0 0
0.861601 0 0
0.94081 0 0
1 0 0
1 0 0
1 0 0
1 0 0
1 0 0
1 0 0
1 0 0
1 0 0
1 0 0
1 0 0
1 0 0
1 0 0
1 0 0
1 0 0
1 0 0
0 0 0
0 0 0
0.009308 0 0
0.0467231 0 0
0.0849622 0 0
0.128191 0 0
0.17348 0 0
0.222019 0 0
0.274693 0 0
0.332097 0 0
0.394644 0 0
0.462486 0 0
0.535393 0 0
0.612757 0 0
0.693462 0 0
0.775906 0 0
0.85803 0 0
0.937575 0 0
1 0 0
1 0 0
1 0 0
1 0 0
1 0 0
1 0 0
1 0 0
1 0 0
1 0 0
1 0 0
1 0 0
1 0 0
1 0 0
1 0 0
1 0 0
0 0.0109865 0
0 0.00393683 0
0 0 0
0.0260014 0 0
0.0640421 0 0
0.111833 0 0
0.160571 0 0
0.211566 0 0
0.266056 0 0
0.32488 0 0
0.38854 0 0
0.457282 0 0
0.530907 0 0
0.608865 0 0
0.690059 0 0
0.772885 0 0
0.855329 0 0
0.935119 0 0
1 0 0
1 0 0
1 0 0
1 0 0
1 0 0
1 0 0
1 0 0
1 0 0
1 0 0
1 0 0
1 0 0
1 0 0
1 0 0
1 0 0
1 0 0
0 0.0400854 0
0 0.0330358 0
0 0.0277409 0
0.0104677 0.0237583 0
0.0484932 0.0197299 0
0.0984817 0.0143435 0
0.150362 0.007187 0
0.203433 0 0
0.259419 0 0
0.319356 0 0
0.383902 0 0
0.45333 0 0
0.527535 0 0
0.605936 0 0
0.687495 0 0
0.770611 0 0
0.8533 0 0
0.933272 0 0
1 0 0
1 0 0
1 0 0
1 0 0
1 0 0
1 0 0
1 0 0
1 0 0
1 0 0
1 0 0
1 0 0
1 0 0
1 0 0
1 0 0
1 0 0
0 0.0696574 0
0 0.0626078 0
0 0.0573129 0
0 0.0533303 0
0.0327001 0.0493019 0
0.0836652 0.0439155 0
0.139437 0.0367437 0
0.194888 0.0272831 0
0.252506 0.0148165 0
0.313664 0 0
0.379141 0 0
0.449287 0 0
0.524071 0 0
0.602945 0 0
0.684871 0 0
0.768307 0 0
0.851225 0 0
0.931395 0 0
1 0 0
1 0 0
1 0 0
1 0 0
1 0 0
1 0 0
1 0 0
1 0 0
1 0 0
1 0 0
1 0 0
1 0 0
1 0 0
1 0 0
1 0 0
0 0.107088 0
0 0.100999 0
0 0.0962539 0
0 0.0925917 0
0.0116426 0.0887922 0
0.0623636 0.0835737 0
0.123842 0.0761883 0
0.182986 0.0667124 0
0.24303 0.0542611 0
0.305913 0.0380102 0
0.372686 0.0170291 0
0.443839 0 0
0.519417 0 0
0.598932 0 0
0.681361 0 0
0.765209 0 0
0.848463 0 0
0.928893 0 0
1 0 0
1 0 0
1 0 0
1 0 0
1 0 0
1 0 0
1 0 0
1 0 0
1 0 0
1 0 0
1 0 0
1 0 0
1 0 0
1 0 0
1 0 0
0 0.146883 0
0 0.142 0
0 0.138247 0
0 0.135378 0
0 0.132418 0
0.0343786 0.128405 0
0.100771 0.122927 0
0.166155 0.115419 0
0.229908 0.105028 0
0.295323 0.0903944 0
0.363943 0.0694438 0
0.4365 0.04271 0
0.513161 0.00921645 0
0.593545 0 0
0.676677 0 0
0.761059 0 0
0.844755 0 0
0.925551 0 0
1 0 0
1 0 0
1 0 0
1 0 0
1 0 0
1 0 0
1 0 0
1 0 0
1 0 0
1 0 0
1 0 0
1 0 0
1 0 0
1 0 0
1 0 0
0 0.189776 0
0 0.185779 0
0 0.182727 0
0 0.180407 0
0 0.178027 0
0 0.174807 0
0.0647593 0.170474 0
0.141649 0.164584 0
0.211505 0.156603 0
0.280751 0.145693 0
0.352041 0.130678 0
0.426581 0.10959 0
0.504768 0.0785687 0
0.586343 0.0375067 0
0.67042 0 0
0.75555 0 0
0.839841 0 0
0.921111 0 0
0.997192 0 0
1 0 0
1 0 0
1 0 0
1 0 0
1 0 0
1 0 0
1 0 0
1 0 0
1 0 0
1 0 0
1 0 0
1 0 0
1 0 0
1 0 0
0 0.236454 0
0 0.233127 0
0 0.230594 0
0 0.228687 0
0 0.226734 0
0 0.224109 0
0.0160678 0.220569 0
0.103792 0.215808 0
0.185046 0.20943 0
0.260471 0.200839 0
0.33579 0.189288 0
0.413199 0.173693 0
0.493523 0.152468 0
0.57673 0.123018 0
0.662089 0.0796368 0
0.748241 0.0228122 0
0.833326 0 0
0.915221 0 0
0.991806 0 0
1 0 0
1 0 0
1 0 0
1 0 0
1 0 0
1 0 0
1 0 0
1 0 0
1 0 0
1 0 0
1 0 0
1 0 0
1 0 0
1 0 0
0 0.287434 0
0 0.284642 0
0 0.282521 0
0 0.280934 0
0 0.279301 0
0 0.277119 0
0 0.274174 0
0.0417182 0.270253 0
0.145174 0.265019 0
0.231708 0.258045 0
0.313405 0.248783 0
0.395056 0.23653 0
0.478431 0.220371 0
0.563928 0.199069 0
0.651041 0.170886 0
0.738567 0.132891 0
0.824735 0.0782635 0
0.907485 0.0100404 0
0.984726 0 0
1 0 0
1 0 0
1 0 0
1 0 0
1 0 0
1 0 0
1 0 0
1 0 0
1 0 0
1 0 0
1 0 0
1 0 0
1 0 0
1 0 0
0 0.343069 0
0 0.340703 0
0 0.338903 0
0 0.33756 0
0 0.336187 0
0 0.33434 0
0 0.331884 0
0 0.328603 0
0.0769818 0.324224 0
0.189288 0.318456 0
0.282078 0.310842 0
0.370352 0.300877 0
0.458198 0.287968 0
0.546944 0.271366 0
0.6365 0.250263 0
0.725887 0.223667 0
0.813504 0.190356 0
0.897383 0.148379 0
0.975509 0.0932631 0
1 0.0243687 0
1 0 0
1 0 0
1 0 0
1 0 0
1 0 0
1 0 0
1 0 0
1 0 0
1 0 0
1 0 0
1 0 0
1 0 0
1 0 0
0 0.403449 0
0 0.401434 0
0 0.399908 0
0 0.398749 0
0 0.397589 0
0 0.396017 0
0 0.393927 0
0 0.39115 0
0 0.387457 0
0.120485 0.382589 0
0.236927 0.376211 0
0.336355 0.367941 0
0.431037 0.357321 0
0.524468 0.343862 0
0.617426 0.327092 0
0.709377 0.306615 0
0.798947 0.282109 0
0.884337 0.253437 0
0.963623 0.2206 0
1 0.183642 0
1 0.142336 0
1 0.0955367 0
1 0.0445258 0
1 0.00109865 0
1 0 0
1 0 0
1 0 0
1 0 0
1 0 0
1 0 0
1 0 0
1 0 0
1 0 0
0 0.468406 0
0 0.466667 0
0 0.465354 0
0 0.464363 0
0 0.463355 0
0 0.462013 0
0 0.460212 0
0 0.457832 0
0 0.454688 0
0 0.450538 0
0.166888 0.445121 0
0.288548 0.438132 0
0.39443 0.429206 0
0.494835 0.418021 0
0.59263 0.404242 0
0.68809 0.387686 0
0.780301 0.368322 0
0.867674 0.346365 0
0.948501 0.322301 0
1 0.296849 0
1 0.270863 0
1 0.245243 0
1 0.220844 0
1 0.198306 0
1 0.178088 0
1 0.160449 0
1 0.145434 0
1 0.132921 0
1 0.122713 0
1 0.114534 0
1 0.10808 0
1 0.103059 0
1 0.0991684 0
0 0.537362 0
0 0.535851 0
0 0.534707 0
0 0.533852 0
0 0.532982 0
0 0.531823 0
0 0.530266 0
0 0.528206 0
0 0.525475 0
0 0.521904 0
0.0316014 0.51725 0
0.21767 0.511254 0
0.344396 0.503639 0
0.455848 0.494148 0
0.560647 0.482551 0
0.66099 0.468757 0
0.756741 0.452827 0
0.846754 0.43508 0
0.92958 0.416022 0
1 0.396384 0
1 0.376959 0
1 0.358495 0
1 0.341619 0
1 0.326726 0
1 0.314 0
1 0.303426 0
1 0.294835 0
1 0.287999 0
1 0.282643 0
1 0.278492 0
1 0.275319 0
1 0.272908 0
1 0.271092 0
0 0.609339 0
0 0.608011 0
0 0.607004 0
0 0.606256 0
0 0.605493 0
0 0.604471 0
0 0.603113 0
0 0.601312 0
0 0.598932 0
0 0.595819 0
0 0.59176 0
0.0914321 0.586557 0
0.273655 0.579965 0
0.404334 0.571771 0
0.519768 0.561822 0
0.626978 0.550072 0
0.727504 0.536614 0
0.820996 0.521752 0
0.906401 0.506004 0
0.982605 0.489982 0
1 0.474388 0
1 0.4598 0
1 0.446693 0
1 0.435325 0
1 0.425757 0
1 0.417914 0
1 0.411627 0
1 0.406668 0
1 0.402823 0
1 0.399863 0
1 0.39762 0
1 0.395911 0
1 0.394629 0
0 0.682872 0
0 0.681697 0
0 0.680812 0
0 0.68014 0
0 0.679469 0
0 0.678569 0
0 0.677363 0
0 0.675776 0
0 0.673671 0
0 0.670909 0
0 0.667338 0
0 0.66276 0
0.162158 0.656977 0
0.335164 0.649805 0
0.467842 0.641123 0
0.584955 0.630915 0
0.691981 0.619287 0
0.790021 0.606531 0
0.878706 0.593118 0
0.957336 0.579599 0
1 0.566522 0
1 0.554421 0
1 0.543648 0
1 0.534371 0
1 0.526619 0
1 0.520317 0
1 0.515282 0
1 0.511345 0
1 0.508293 0
1 0.505959 0
1 0.504173 0
1 0.502831 0
1 0.501823 0
0 0.756146 0
0 0.755093 0
0 0.754299 0
0 0.753704 0
0 0.753094 0
0 0.752285 0
0 0.751217 0
0 0.749783 0
0 0.747906 0
0 0.745449 0
0 0.74226 0
0 0.73817 0
0 0.733013 0
0.236881 0.72665 0
0.401892 0.718959 0
0.533913 0.709926 0
0.649805 0.699702 0
0.75375 0.688533 0
0.846571 0.676829 0
0.928206 0.665095 0
0.998489 0.653819 0
1 0.643442 0
1 0.634241 0
1 0.626368 0
1 0.619821 0
1 0.614511 0
1 0.610285 0
1 0.606973 0
1 0.604425 0
1 0.602472 0
1 0.600992 0
1 0.599863 0
1 0.599023 0
0 0.827115 0
0 0.826154 0
0 0.825437 0
0 0.824903 0
0 0.824353 0
0 0.823621 0
0 0.822644 0
0 0.821347 0
0 0.819654 0
0 0.817426 0
0 0.814542 0
0 0.810849 0
0 0.806195 0
0.05626 0.800458 0
0.316533 0.79353 0
0.472786 0.785428 0
0.601038 0.776272 0
0.712566 0.766293 0
0.810513 0.755886 0
0.895735 0.74548 0
0.968643 0.735531 0
1 0.72639 0
1 0.718318 0
1 0.711437 0
1 0.70573 0
1 0.701106 0
1 0.697429 0
1 0.69456 0
1 0.692348 0
1 0.690654 0
1 0.689372 0
1 0.688411 0
1 0.687678 0
0 0.893797 0
0 0.892912 0
0 0.892256 0
0 0.891752 0
0 0.891249 0
0 0.890578 0
0 0.889693 0
0 0.888502 0
0 0.886946 0
0 0.884901 0
0 0.882261 0
0 0.878874 0
0 0.874617 0
0 0.869368 0
0.196979 0.86305 0
0.400183 0.855665 0
0.546059 0.847318 0
0.667353 0.83827 0
0.771481 0.82884 0
0.860929 0.81944 0
0.936812 0.810468 0
1 0.802258 0
1 0.79501 0
1 0.788846 0
1 0.783734 0
1 0.779614 0
1 0.776349 0
1 0.773785 0
1 0.771817 0
1 0.770321 0
1 0.769177 0
1 0.768322 0
1 0.767666 0
0 0.954482 0
0 0.953674 0
0 0.953063 0
0 0.95259 0
0 0.952132 0
0 0.951507 0
0 0.950668 0
0 0.949569 0
0 0.948119 0
0 0.946227 0
0 0.943771 0
0 0.940627 0
0 0.936675 0
0 0.931807 0
0 0.925963 0
0.3131 0.919127 0
0.485679 0.911437 0
0.619379 0.903075 0
0.730831 0.894392 0
0.825071 0.885756 0
0.904265 0.877531 0
0.969863 0.869993 0
1 0.863386 0
1 0.85774 0
1 0.853086 0
1 0.849332 0
1 0.846342 0
1 0.844022 0
1 0.842237 0
1 0.840864 0
1 0.839826 0
1 0.839048 0
1 0.838468 0
0 1 0
0 1 0
0 1 0
0 1 0
0 1 0
0 1 0
0 1 0
0 1 0
0 1 0
0 1 0
0 0.997955 0
0 0.99501 0
0 0.991302 0
0 0.986725 0
0 0.981231 0
0.202487 0.974838 0
0.420752 0.96762 0
0.57026 0.959808 0
0.69015 0.951705 0
0.789639 0.943633 0
0.872343 0.935958 0
0.940398 0.928954 0
0.995575 0.922805 0
1 0.917571 0
1 0.913252 0
1 0.909758 0
1 0.906996 0
1 0.904845 0
1 0.903181 0
1 0.901915 0
1 0.900954 0
1 0.900236 0
1 0.899687 0
0 1 0
0 1 0
0 1 0
0 1 0
0 1 0
0 1 0
0 1 0
0 1 0
0 1 0
0 1 0
0 1 0
0 1 0
0 1 0
0 1 0
0 1 0
0.0234531 1 0
0.351965 1 0
0.521645 1 0
0.65098 1 0
0.756008 0.992828 0
0.842298 0.98558 0
0.91281 0.978973 0
0.969741 0.973159 0
1 0.968231 0
1 0.964157 0
1 0.960876 0
1 0.958267 0
1 0.956252 0
1 0.954681 0
1 0.95349 0
1 0.95259 0
1 0.951919 0
1 0.9514 0
0 1 0
0 1 0
0 1 0
0 1 0
0 1 0
0 1 0
0 1 0
0 1 0
0 1 0
0 1 0
0 1 0
0 1 0
0 1 0
0 1 0
0 1 0
0 1 0
0.27924 1 0
0.47509 1 0
0.614649 1 0
0.725292 1 0
0.815122 1 0
0.887999 1 0
0.946563 1 0
0.993057 1 0
1 1 0
1 1 0
1 1 0
1 0.998688 0
1 0.997208 0
1 0.996078 0
1 0.995209 0
1 0.994568 0
1 0.994079 0
0 1 0
0 1 0
0 1 0
0 1 0
0 1 0
0 1 0
0 1 0
0 1 0
0 1 0
0 1 0
0 1 0
0 1 0
0 1 0
0 1 0
0 1 0
0 1 0
0.200717 1 0
0.431846 1 0
0.582116 1 0
0.698238 1 0
0.791379 1 0
0.866438 1 0
0.926497 1 0
0.97406 1 0
1 1 0
1 1 0
1 1 0
1 1 0
1 1 0
1 1 0
1 1 0
1 1 0
1 1 0
0 1 0
0 1 0
0 1 0
0 1 0
0 1 0
0 1 0
0 1 0
0 1 0
0 1 0
0 1 0
0 1 0
0 1 0
0 1 0
0 1 0
0 1 0
0 1 0
0.108965 1 0
0.392813 1 0
0.553903 1 0
0.675135 1 0
0.771267 1 0
0.848264 1 0
0.909651 1 0
0.958129 1 0
0.996002 1 0
1 1 0
1 1 0
1 1 0
1 1 0
1 1 0
1 1 0
1 1 0
1 1 0
0 1 0
0 1 0
0 1 0
0 1 0
0 1 0
0 1 0
0 1 0
0 1 0
0 1 0
0 1 0
0 1 0
0 1 0
0 1 0
0 1 0
0 1 0
0 1 0
0 1 0
0.358465 1 0
0.530129 1 0
0.65597 1 0
0.754711 1 0
0.833371 1 0
0.895872 1 0
0.945129 1 0
0.983566 1 0
1 1 0
1 1 0
1 1 0
1 1 0
1 1 0
1 1 0
1 1 0
1 1 0
0 1 0
0 1 0
0 1 0
0 1 0
0 1 0
0 1 0
0 1 0
0 1 0
0 1 0
0 1 0
0 1 0
0 1 0
0 1 0
0 1 0
0 1 0
0 1 0
0 1 0
0.328984 1 0
0.510567 1 0
0.640406 1 0
0.741375 1 0
0.821408 1 0
0.88484 1 0
0.934737 1 0
0.973617 1 0
1 1 0
1 1 0
1 1 0
1 1 0
1 1 0
1 1 0
1 1 0
1 1 0
0 1 0
0 1 0
0 1 0
0 1 0
0 1 0
0 1 0
0 1 0
0 1 0
0 1 0
