LUTs/canon-cine.cube
TITLE "Generated by Resolve"
LUT_3D_SIZE 5
0 0 0
0.285801 0 0
0.861601 0 0
1 0 0
1 0 0
0 0.236454 0
0.185046 0.20943 0
0.833326 0 0
1 0 0
1 0 0
0 0.756146 0
0 0.747906 0
0.649805 0.699702 0
1 0.619821 0
1 0.599023 0
0 1 0
0 1 0
0.108965 1 0
0.996002 1 0
1 1 0
0 1 0
0 1 0
0 1 0
0.946929 1 0
1 1 0
0 0 0.229816
0.272206 0 0.226749
0.857237 0 0.208804
1 0 0.179171
1 0 0.171481
0 0.196948 0.168856
0.164904 0.164904 0.164904
0.828794 0 0.141161
1 0 0.098909
1 0 0.0870069
0 0.74435 0
0 0.735973 0
0.643885 0.68687 0
1 0.605188 0
1 0.583841 0
0 1 0
0 1 0
0.0777295 1 0
0.992294 1 0
1 1 0
0 1 0
0 1 0
0 1 0
0.943008 1 0
1 1 0
0 0 0.742184
0.180545 0 0.741222
0.832288 0 0.735744
1 0 0.727459
1 0 0.72546
0 0 0.724788
0.000411994 0 0.723796
0.802869 0 0.718181
1 0 0.709667
1 0 0.707622
0 0.674037 0.617319
0 0.664698 0.616144
0.609476 0.609476 0.609476
1 0.514977 0.599313
1 0.48957 0.596857
0 1 0.402701
0 1 0.400885
0 1 0.390463
0.971145 1 0.374319
1 1 0.370352
0 1 0.331395
0 1 0.329183
0 1 0.316548
0.920592 1 0.296635
1 1 0.291676
0 0 1
0 0 1
0.793194 0 1
1 0 1
1 0 1
0 0 1
0 0 1
0.762142 0 1
1 0 1
1 0 1
0 0.550713 1
0 0.539132 1
0.553597 0.468635 1
1 0.336187 1
1 0.296254 1
0 1 0.949599
0 1 0.948867
0 0.991257 0.944701
0.938399 0.938399 0.938399
1 0.925246 0.936889
0 1 0.922713
0 1 0.92195
0 1 0.917647
0.885771 1 0.911131
1 1 0.909575
0 0 1
0 0 1
0.783536 0 1
1 0 1
1 0 1
0 0 1
0 0 1
0.752041 0 1
1 0 1
1 0 1
0 0.51664 1
0 0.50425 1
0.53933 0.42797 1
1 0.277592 1
1 0.228748 1
0 1 1
0 1 1
0 0.973556 1
0.930373 0.91957 1
1 0.906126 1
0 1 1
0 1 1
0 1 1
0.877211 1 1
1 1 1
